X:724
T:Maid at the Well, The
M:6/8
L:1/8
R:jig
B:O'Neill's 724
N:"collected by F. O'Neill"
Z:transcribed by mvhplank
K:G
A|GED DED|GEG c2 e|dcB AGA|BAG E2 A|\
GED DED GDG c2 e|dcB AGA |BGG G2:|
||d|gdd edd|gdB c2 e|dcB AGA|BAG E2 d|\
gdd edd|gdB c2 e|dcB AGA|BGG G2:|


